X:1
T:G minor Oliver Holden, 1803
T:Isaac Watts, 1709 (Hymn 146, Book 2) 88. 88. (L. M.)
T:Seclusion Treble-Tenor-Bass from The Charlestown Collection , 1803; Counter by B. C. Johnston, 2016.
%%score [ 1 2 3 4 ]
L:1/8
M:2/4
K:Bb
V:1 treble nm="Tr." snm="Tr."
V:2 treble nm="C." snm="C."
V:3 treble-8 nm="T." snm="T."
V:4 bass nm="B." snm="B."
V:1
 Bd dd | e2 d2 | Bd d2 | !fermata!d2 z ^F | GB B2 | d>B dB | A4 | Bd dd | c2 B2 | BA G^F | %10
w: 1.~Man * has a|soul of|vast * de-|sires; He|burns * with-|in from rest- less|fires;|Tossed * to and|fro, his|pas- * sions *|
 !fermata!G2 A2 | Bd BG | Ac Be | d2 d2 | d4 |] %15
w: fly From|va- * ni- *|ty * to *|va- ni-|ty.|
V:2
 G2 AG | A2 B2 | BG ^FE | !fermata!D2 z D | EG B2 | A>B AB | A4 | G2 AG | A2 B2 | Bc BA | %10
w: 2.~In vain on|earth we|hope * to *|find Some|so- * lid|good to fill the|mind;|We try new|plea- sures,|but * we *|
 !fermata!G2 ^F2 | GB GB | cA GA | BA G^F | G4 |] %15
w: feel The|in- * ward *|thirst * and *|tor- * ment *|still.|
V:3
 dB AG | c2 B2 | dB AG | !fermata!^F2 z G | BG D2 | D>G FE | D4 | dB AG | e2 d2 | dc BA | %10
w: 3.~So * when a|ra- ging|fe- * ver *|burns, We|shift * from|side to side by|turns,|And * 'tis a|poor re-|lief * we *|
 !fermata!B2 c2 | dg dB | ce dg | dc/B/ A2 | G4 |] %15
w: gain, To|change * the *|place, * but *|keep * * the|pain.|
V:4
 G,2 D,G, | ^F,2 G,2 | D,2 D,2 | !fermata!D,2 z D, | D,2 D,2 | D,>D, D,D, | D,4 | G,2 D,G, | %8
w: 4.~Great God, sub-|due this|vi- cious|thirst, This|love to|va- ni- ty and|dust;|Cure the vile|
 ^F,2 G,2 | D,2 D,2 | !fermata!G,2 ^F,2 | G,2 B,2 | A,2 G,2 | %13
w: fe- ver|of the|mind, And|feed our|souls with|
"^_________________________________\nEdited by B. C. Johnston, 2016.\n  1. Top line, marked Air in original, moved to Tenor, down an octave." D2 D,2 | %14
w: joys re-|
 G,4 |] %15
w: fined.|

